X:2
T:The Man Of The House
M:C|
L:1/8
S:Music for Whistle and Guitar (Breatnach/Dunlea, Trk 1)
R:Reel
B:O'Neill's 1398
N:"collected by O'Reilly"
Z: Wosika
K:Em
D |: E2 BE GABG | E2 BE ~FD AB | E2 BE GABe | dB{Bc}BA BE GA |
   | E2 BE GABG | E2 BE ~FD AB |1 E2 BE GABe | d2 {d}e2 {de}d2 (3BAG \
:|2 E2 BE GABd| (3BAG BA Be e2|
|: ef (3gfe fg af | gf ed  ed Bd | ef (3gfe fg af | gfed Baaf |
    e2ge  fgaf | g2 fd  efga | b2 a2 bg f2 | eBAF BGFD :||
